!!!COM: Martin, Frank
!!!OTL: Trio sur des mélodies populaires irlandaises (Trio on Popular Irish Melodies) for Violin, Violincello and Piano
!!!OMV: I: Allegro moderato
!!!example: 540
!!!work: Mai-11
**kern	**kern	**dynam	**kern	**dynam	**kern	**dynam
*part3	*part3	*part3	*part2	*part2	*part1	*part1
*staff4	*staff3	*	*staff2	*	*staff1	*
*I"Piano	*	*	*I"Viola	*	*I"Violin	*
*I'Pno.	*	*	*I'Vla.	*	*I'Vln.	*
*clefF4	*clefG2	*	*clefC3	*	*clefG2	*
*k[b-]	*k[b-]	*	*k[b-]	*	*k[b-]	*
*F:	*F:	*	*F:	*	*F:	*
*M4/4	*M4/4	*	*M4/4	*	*M4/4	*
*MM121	*MM121	*	*MM121	*	*MM121	*
=31	=	=	=	=	=	=
4CC 4GG	4c 4g	.	(4b-~	.	4G 4d	.
4CC 4GG	4c 4g	.	(8.b-L	.	4G 4d	.
.	.	.	16ccJk)	.	.	.
4CC 4GG	4c 4g	.	(8b-L	.	4G 4d	.
.	.	.	8a	.	.	.
[4CC [4GG	[4c [4g	.	8g	.	[4G [4d	.
.	.	.	8b-J)	.	.	.
=32	=32	=32	=32	=32	=32	=32
4CC] 4GG]	4c] 4g]	.	(4.a	.	4G] 4d]	.
4CC 4GG	4c 4g	.	.	.	4G 4d	.
.	.	.	8g	.	.	.
2CC 2GG	2c 2g	.	4e)	.	2G 2e	.
.	.	.	(8b-L	.	.	.
.	.	.	8aJ)	.	.	.
=33	=33	=33	=33	=33	=33	=33
.	.	.	8qg/L	.	.	.
.	.	.	8qa/J	.	.	.
2CC 2GG	2c 2g	.	(8gL	.	2G 2d	.
.	.	.	8f	.	.	.
.	.	.	8g	.	.	.
.	.	.	8aJ)	.	.	.
2CC 2GG	2c 2g	.	(8.b-L	.	2G 2e	.
.	.	.	16ccJk	.	.	.
.	.	.	16b-LL	.	.	.
.	.	.	16a	.	.	.
.	.	.	16g	.	.	.
.	.	.	16b-JJ)	.	.	.
=34	=34	=34	=34	=34	=34	=34
4CC 4GG	4c 4g	.	(8aL	.	4G 4d	.
.	.	.	24b-L	.	.	.
.	.	.	24a	.	.	.
.	.	.	24gJJ	.	.	.
2CC 2GG	2c 2g	.	8aL	.	2G 2d	.
.	.	.	8b-J)	.	.	.
.	.	.	(4dd	.	.	.
[4CC [4GG	[4c [4g	.	8eeL	.	[4G [4f	.
.	.	.	8ddJ)	.	.	.
=35	=35	=35	=35	=35	=35	=35
4CC] 4GG]	4c] 4g]	.	(4b-~	.	4G] 4f]	.
4CC 4GG	4c 4g	.	(8.b-L	.	4G 4e	.
.	.	.	16ccJk)	.	.	.
4CC 4GG	4c 4g	.	(8b-L	.	4G 4d	.
.	.	.	8a	.	.	.
[4CC [4GG	[4c [4g	.	8g	.	[4G [4f	.
.	.	.	8aJ)	.	.	.
=36	=36	=36	=36	=36	=36	=36
*	*	*	*	*	*^	*
!!linebreak:original
4CC] 4GG]	4c] 4g]	.	2.b-	.	4G] 4f]	4ryy	.
4CC 4GG	4c 4g	.	.	.	12dL	4G	.
.	.	.	.	.	12e	.	.
.	.	.	.	.	12fJ	.	.
2CC 2GG	2c 2g	.	.	.	2r	2G 2e	.
.	.	.	(8eL	.	.	.	.
.	.	.	8fJ)	.	.	.	.
*	*	*	*	*	*v	*v	*
=37	=37	=37	=37	=37	=37	=37
.	.	.	8qg/L	.	.	.
.	.	.	8qa/J	.	.	.
4CC 4GG	4c 4g	pp	(8gL	.	4G 4d	pp
.	.	.	8f)	.	.	.
[4CC [4GG	[4c [4g	.	(8g'	.	[4G [4d	.
.	.	.	8a'J)	.	.	.
8CCL] 8GG]	8cL] 8g]	.	(8.b-L	.	8GL] 8d]	.
8CC 8GG	8c 8g	.	.	.	8G 8d	.
.	.	.	16ccJk	.	.	.
8CC 8GG	8c 8g	.	16b-LL	.	8G 8d	.
.	.	.	16a	.	.	.
8CCJ 8GG	8cJ 8g	.	16g	.	8GJ 8d	.
.	.	.	16b-JJ)	.	.	.
=38	=38	=38	=38	=38	=38	=38
8CC 8GG	8c 8g	.	(8aL	.	8G 8d	.
4CC 4GG	4c 4g	.	24b-L	.	4G 4d	.
.	.	.	24a	.	.	.
.	.	.	24gJJ)	.	.	.
.	.	.	(8a'L	.	.	.
4CC 4GG	4c 4g	.	8b-'J)	.	4G 4d	.
*	*	*	*clefG2	*	*	*
.	.	.	4b-	.	.	.
8CC 8GG	8c 8g	.	.	.	8G 8d	.
4CC 4GG	4c 4g	.	(8ccL	.	4G 4d	.
.	.	.	8b-J)	.	.	.
=39	=39	=39	=39	=39	=39	=39
8CCL 8GG	8cL 8g	<	4g	.	8GL 8e	<
8CC 8GG	8c 8g	.	.	.	8G 8e	.
8CC 8GG	8c 8g	.	(8.gL	<	8G 8e	.
[8CCJ [8GG	[8cJ [8g	.	.	.	[8GJ [8e	.
.	.	.	16aJk)	.	.	.
8CCL] 8GG]	8cL] 8g]	.	(8b-L	.	8GL] 8e]	.
8CCJ 8GG	8cJ 8g	.	8cc)	.	8GJ 8e	.
4CC 4GG	4c 4g	.	(8dd'	.	4G 4e-X	[[
.	.	.	8ff'J)	[	.	.
=40	=40	=40	=40	=40	=40	=40
4CC 4GG	4c 4g	[	(4.ee-X	.	4G 4d	[
[4CC [4GG	[4c [4g	>	.	.	[4G [4d	>
.	.	.	8dd)	>	.	.
8CCL] 8GG]	8cL] 8g]	.	(8ccL	.	8GL] 8d]	.
8CC 8GG	8c 8g	.	8b-J	.	8G 8e-X	.
8CC 8GG	8c 8g	.	4dd)	]]	8G 8e-	.
8CCJ 8GG	8cJ 8g	]	.	.	8GJ 8e-	]
==	==	==	==	==	==	==
*-	*-	*-	*-	*-	*-	*-
!!!CDT: 1890/09/15-1974/11/21
!!!CBL: Geneva, Switzerland
!!!CDL: Naarden, Netherlands
!!!CNT: Swiss
!!!AGN: Instrumental; Chamber
!!!MCN:
!!!MDT: 1926/04/01
!!!MGN:
!!!MLC: Paris, France
!!!MPD: 1926
!!!MPN: Martin, Frank
!!!ODT: 1925
!!!PDT: 1955
!!!excerpt-start-measure: 31
!!!excerpt-end-measure: 40
!!!excerpt-start-time: 0:49
!!!excerpt-end-time: 1:11
!!!EEV: 2020/01/17
!!!system-decoration: [(s1,s2)]{(s3,s4)}
!!!ONB: Converted from MusicXML on 2020/01/17
